X: 138
T: Shao shu
%%abc-version 2.0
%%abcx-abcm2ps-target-version 5.9.1 (29 Sep 2008)
%%abc-creator hum2abc beta
%%abcx-conversion-date 2013/10/02 07:52:29
%%abc-edited-by Helmut Schaffrath
%%humdrum-veritas 694469455
%%humdrum-veritas-data 1218739656
%%continueall 1
%%barnumbers 0
L: 1/8
M: 2/4
K: Eb
F F/ B/ G/ F/ C/ E/ [I:setbarnb 1]| 
F2F2 | 
e c/ B/ A B | 
F F/ B/ G/ F/ C/ E/ | 
F2F2 | 
e c/ B/ A B | 
e c/ B/ A B | 
F F/ B/ E C/ E/ | 
F2F2 | 
B D B/ D3/ | 
B, E D C/ B,/ | 
A, B, F, A, | 
B, E A,3/ B,/ | 
C B, F, B, | 
A, G,/ F,/E,2 |]  



